packages/foundations/assets/icons/functional/images/transportation/scooter_16_inverted.svg

<svg width="16" height="16" viewBox="0 0 16 16" fill="none" xmlns="http://www.w3.org/2000/svg">
<g clip-path="url(#clip0_2214_6760)">
<path fill-rule="evenodd" clip-rule="evenodd" d="M12.9399 9.93494C13.7131 9.93494 14.3399 10.5617 14.3399 11.3349C14.3399 12.1081 13.7131 12.7349 12.9399 12.7349C12.1667 12.7349 11.5399 12.1081 11.5399 11.3349C11.5399 10.5617 12.1667 9.93494 12.9399 9.93494ZM6.14729 11.033C6.39762 12.0029 5.55307 12.7349 4.77987 12.7349C4.00668 12.7349 3.20426 12.0687 3.41245 11.033C3.41245 11.033 3.05498 11.033 2.34003 11.033C1.99337 11.033 1.70729 10.7736 1.66533 10.4383L1.66003 10.0864C1.66003 8.58446 2.92662 7.27301 4.31918 7.27719L6.29843 7.27302L5.94227 6.09414L3.93987 6.09494C3.54686 6.09494 3.25987 5.77543 3.25987 5.41494C3.25987 5.05444 3.54686 4.73494 3.93987 4.73494H6.01967C6.51837 4.73494 7.03316 5.1231 7.20582 5.58162L8.44387 9.67254H9.26307L12.0599 6.85414V5.0555C12.0599 4.85223 11.9566 4.63137 11.7625 4.63137L10.2965 4.62501C9.92095 4.62501 9.6165 4.32057 9.6165 3.94501C9.6165 3.59835 9.90999 3.26501 10.2965 3.26501H11.7625C12.6576 3.26501 13.3567 4.01517 13.4158 4.92981L13.4199 7.13494C13.4199 7.28447 13.3706 7.42895 13.2811 7.54666L10.0293 10.832C9.9229 10.9392 9.73762 11.033 9.54661 11.033C9.35559 11.033 6.14729 11.033 6.14729 11.033Z" fill="#1A1C1F"/>
</g>
<defs>
<clipPath id="clip0_2214_6760">
<rect width="16" height="16" fill="white"/>
</clipPath>
</defs>
</svg>

<svg xmlns="http://www.w3.org/2000/svg" width="16" height="16" fill="none"><g clip-path="url(#a)"><path fill="#1A1C1F" fill-rule="evenodd" d="M12.94 9.935a1.4 1.4 0 1 1 0 2.8 1.4 1.4 0 0 1 0-2.8m-6.793 1.098c.25.97-.594 1.702-1.367 1.702s-1.576-.666-1.368-1.702H2.34a.68.68 0 0 1-.675-.595l-.005-.352c0-1.502 1.267-2.813 2.66-2.809l1.978-.004-.356-1.179H3.94a.68.68 0 0 1-.68-.68c0-.36.287-.68.68-.68h2.08c.498 0 1.013.39 1.186.848l1.238 4.09h.82l2.796-2.818V5.056c0-.204-.103-.425-.298-.425l-1.466-.006a.68.68 0 0 1-.68-.68c0-.347.294-.68.68-.68h1.467c.895 0 1.594.75 1.653 1.665l.004 2.205a.68.68 0 0 1-.139.412l-3.252 3.285a.72.72 0 0 1-.482.201z" clip-rule="evenodd"/></g><defs><clipPath id="a"><path fill="#fff" d="M0 0h16v16H0z"/></clipPath></defs></svg>
